X: 0506
T: Linton Ploughman
P: The Muckin' o' Geordie's Byre
C:Oswald's »Curious Scots Tunes« 1742
B:RSCDS 5-6
Z:Anselm Lingnau <anselm@strathspey.org>
R:Jig (8x32)
M:6/8
L:1/8
K:D
|:cB|"D"A>BA A<FA|d2e f2a|"A7"g2e "D"f2d|"G"efd B2d|
     "D"A>BA "A"A<FA|"D"d2e f2g|afd "A7"e2f|d3-d:|
|:ef|"Em"gdg "A7"gag|"D"fdf "Bm"fgf|"Em"ede "A7"efg|"D"fed "G"B2d|
     "D"A>BA "A7"A<FA|"D"d2e f2g|afd "A7"e2f|d3-d:|
%%center Book05/0506-Linton_Ploughman-AL.abc

%%sep 1 1 500
%%sep 1 1 500

